X:34
T:Larry O'Gaff
T:Daniel O'Connell
S:Michael Coleman
D:Michael Coleman 1891-1945, Disc 2, Track 6
Z: id:ng-jigs-34 transcribed by Alan Ng alan@alan-ng.nospam (net) 1 Feb. 2008. Minor variations in last 8 bars (of 1st time through tune) ignored here.
M:6/8
L:1/8
K:D
d3|dDD FDD|AFA BAF|GFG F2E|DFA B2c|dDD FDD|AAA BAF|\
GFG EAG|1FDD D3:|2FDD D2c||dcd ede|fdB AFA|d/d/cd efg|\
fdc d(3:2:2ABc|ded dcB|AFD AFD|~G3 EAG|FDD D3:|
